brandFactory_export/2.Regular/Arbol 2 _2Regular.svg

<?xml version="1.0" encoding="UTF-8"?>
<svg width="24px" height="24px" viewBox="0 0 24 24" version="1.1" xmlns="http://www.w3.org/2000/svg" xmlns:xlink="http://www.w3.org/1999/xlink">
    <title>2.Regular/Arbol 2 _2Regular</title>
    <g id="Symbols" stroke="none" stroke-width="1" fill="none" fill-rule="evenodd">
        <g id="2.Regular/Arbol-2-_2Regular" fill="#5CB615" fill-rule="nonzero">
            <path d="M17.3042017,15.6 L12.4571429,15.6302521 L12.4571429,12.6016807 C12.4638655,12.5915966 12.4773109,12.5882353 12.4840336,12.5781513 L15.0554622,9.07226891 C15.2941176,8.74621849 15.2235294,8.29243697 14.9008403,8.05042017 C14.5815126,7.81176471 14.1277311,7.8789916 13.8890756,8.19831933 L13.8857143,8.20168067 L12.4537815,10.1546218 L12.4537815,8.91428571 C12.4537815,8.51092437 12.1310924,8.18487395 11.7277311,8.18487395 C11.3277311,8.18823529 11.0016807,8.51428571 11.0016807,8.91428571 L11.0016807,13.2033613 L9.15630252,11.3344538 C8.87731092,11.0487395 8.42016807,11.0453782 8.13445378,11.3243697 L8.12773109,11.3310924 C7.84201681,11.6168067 7.84201681,12.0773109 8.12436975,12.3630252 L11.0016807,15.2739496 L11.0016807,15.6302521 L5.21008403,15.6302521 C4.08067227,15.6302521 1.4487395,15.2638655 1.4487395,11.8655462 C1.4487395,9.95630252 2.26218487,8.75294118 3.86554622,8.29579832 C4.18487395,8.20504202 4.4,7.9092437 4.39327731,7.57983193 L4.38655462,7.46218487 C4.38655462,1.89243697 9.22016807,1.46218487 10.702521,1.46218487 C11.5428571,1.46218487 15.7848739,1.65378151 16.789916,5.41848739 C16.8705882,5.72773109 17.1495798,5.94957983 17.4689076,5.95966387 C18.8840336,6 22.1714308,6.54453782 22.1714308,10.7495798 C22.1747899,15.2504202 18.4470588,15.6 17.3042017,15.6 M18.0369748,4.53109244 C16.5411765,0.225210084 11.6941176,0 10.7058824,0 C9.43193277,0 3.17647059,0.346218487 2.94453782,7.07226891 C1.6605042,7.58991597 0,8.84369748 0,11.8655462 C0,15.7176471 2.69243697,17.092437 5.21008403,17.092437 L11.005042,17.092437 L11.005042,22.8941176 C11.005042,23.297479 11.3310924,23.6235294 11.7310924,23.6235294 C12.1310924,23.6235294 12.4571429,23.2941176 12.4571429,22.8941176 L12.4571429,17.0890756 L17.3042017,17.0588235 C20.2184874,17.0588235 23.6235294,15.405042 23.6235294,10.7462185 C23.6235294,6.53109244 20.8302521,4.78991597 18.0369748,4.53109244" id="Arbol-2-_2Regular"></path>
        </g>
    </g>
</svg>

<svg width="24" height="24" viewBox="0 0 24 24" xmlns="http://www.w3.org/2000/svg"><path d="M17.304 15.6l-4.847.03v-3.028c.007-.01.02-.014.027-.024l2.571-3.506a.734.734 0 00-.154-1.022.724.724 0 00-1.012.148l-.003.004-1.432 1.953v-1.24a.726.726 0 10-1.452 0v4.288l-1.846-1.869a.722.722 0 00-1.022-.01l-.006.007a.731.731 0 00-.004 1.032l2.878 2.91v.357H5.21c-1.13 0-3.761-.366-3.761-3.764 0-1.91.813-3.113 2.417-3.57a.728.728 0 00.527-.716l-.006-.118c0-5.57 4.833-6 6.316-6 .84 0 5.082.192 6.087 3.956.08.31.36.532.679.542 1.415.04 4.702.585 4.702 4.79.004 4.5-3.724 4.85-4.867 4.85m.733-11.069C16.541.225 11.694 0 10.706 0c-1.274 0-7.53.346-7.761 7.072C1.66 7.59 0 8.844 0 11.866c0 3.852 2.692 5.226 5.21 5.226h5.795v5.802c0 .403.326.73.726.73.4 0 .726-.33.726-.73V17.09l4.847-.03c2.914 0 6.32-1.654 6.32-6.313 0-4.215-2.794-5.956-5.587-6.215" fill="#5CB615" fill-rule="nonzero"/></svg>
